dist/img/tw.svg

<svg width="32" height="32" viewBox="0 0 32 32" fill="none" xmlns="http://www.w3.org/2000/svg">
<path d="M16 32C24.8366 32 32 24.8366 32 16C32 7.16344 24.8366 0 16 0C7.16344 0 0 7.16344 0 16C0 24.8366 7.16344 32 16 32Z" fill="#46ABF4"/>
<path d="M24.8639 11.3331C24.7756 11.3459 24.6873 11.3587 24.5989 11.3689C24.5861 11.3715 24.5733 11.3664 24.5413 11.3612C24.9663 11.1052 25.3298 10.8083 25.6332 10.4499C25.9358 10.0897 26.1708 9.67771 26.3269 9.23388L25.9647 9.41564C25.2695 9.75487 24.534 10.0043 23.7759 10.158C23.6863 10.1772 23.6338 10.1568 23.566 10.0953C22.8708 9.45761 21.9852 9.06629 21.0457 8.98172C21.0277 8.97916 21.0098 8.96764 20.9919 8.95996H20.1727C19.9602 8.99836 19.7465 9.02908 19.5378 9.07772C18.5714 9.30556 17.7893 9.79196 17.1993 10.5305C16.4697 11.4483 16.2329 12.4748 16.4517 13.5923C16.4552 13.6076 16.4581 13.6229 16.4607 13.6384L16.4684 13.7164C14.8135 13.6433 13.1895 13.243 11.6901 12.5388C10.2175 11.8533 8.9017 10.8721 7.82454 9.65628C7.27798 10.5523 7.12054 11.4892 7.35606 12.4748C7.59286 13.4604 8.18422 14.2374 9.0751 14.8236L9.05846 14.862C8.74486 14.807 8.42486 14.7724 8.11894 14.6905C7.8143 14.6112 7.52374 14.487 7.22934 14.3833C7.15766 15.8592 8.26102 17.7254 10.5548 18.2169C9.94922 18.3593 9.32143 18.3802 8.70774 18.2784C8.95222 19.2256 10.2361 20.8972 12.5925 20.9907C12.4057 21.1136 12.2418 21.23 12.0716 21.3337C10.9576 22.0121 9.70759 22.4361 8.41078 22.5753C7.77971 22.6435 7.14343 22.6491 6.51126 22.592C6.47414 22.5894 6.43702 22.5792 6.3999 22.5715V22.5945C8.00206 23.5363 9.79309 24.1112 11.6441 24.2777C11.7567 24.288 11.8681 24.3059 11.9807 24.32H13.7471L14.0965 24.2816C15.5727 24.1632 17.016 23.7831 18.3589 23.159C19.2891 22.7223 20.1548 22.1598 20.9317 21.4873C22.094 20.486 23.0392 19.2577 23.7093 17.8777C24.2034 16.8665 24.5349 15.8131 24.6975 14.7161C24.7871 14.1081 24.8281 13.4963 24.7973 12.8806C24.7948 12.8332 24.8319 12.7654 24.8741 12.7372C25.5365 12.2802 26.1304 11.7311 26.638 11.1065L26.8799 10.8032V10.7801C26.2309 11.0361 25.5615 11.2268 24.8639 11.3331Z" fill="white"/>
</svg>

<svg width="32" height="32" fill="none" xmlns="http://www.w3.org/2000/svg"><path d="M16 32c8.837 0 16-7.163 16-16S24.837 0 16 0 0 7.163 0 16s7.163 16 16 16z" fill="#46ABF4"/><path d="M24.864 11.333a8.02 8.02 0 01-.265.036c-.013.002-.026-.003-.058-.008a4.336 4.336 0 001.092-.911c.303-.36.538-.772.694-1.216l-.362.182a9.141 9.141 0 01-2.19.742c-.089.02-.141-.001-.209-.063a4.299 4.299 0 00-2.52-1.113c-.018-.003-.036-.014-.054-.022h-.82c-.212.038-.425.07-.634.118-.967.228-1.749.714-2.339 1.453-.73.917-.966 1.944-.747 3.061l.009.046.007.078a12.542 12.542 0 01-4.778-1.177 11.84 11.84 0 01-3.865-2.883c-.547.896-.704 1.833-.469 2.819.237.985.828 1.762 1.72 2.349l-.018.038c-.313-.055-.633-.09-.94-.171-.304-.08-.594-.204-.889-.308-.071 1.476 1.032 3.342 3.326 3.834a4.705 4.705 0 01-1.847.061c.244.948 1.528 2.62 3.884 2.713-.186.123-.35.239-.52.343a8.855 8.855 0 01-3.661 1.241 9.623 9.623 0 01-1.9.017c-.037-.003-.074-.013-.111-.02v.023a12.57 12.57 0 005.244 1.683c.113.01.224.028.337.042h1.766l.35-.038a12.481 12.481 0 004.262-1.123c.93-.437 1.796-1 2.573-1.672a11.25 11.25 0 002.777-3.61c.494-1.01.826-2.064.989-3.16.09-.609.13-1.22.1-1.836a.191.191 0 01.076-.144 8.474 8.474 0 001.764-1.63l.242-.304v-.023a9.294 9.294 0 01-2.016.553z" fill="#fff"/></svg>
